X:161
T:A Favourite Waltz. RHu.157
S:R.Hughes MS,1823,Whitchurch,Shrops.
C:Richard Hughes MS 1823
A:Whitchurch, Shropshire
Z:Tony Weatherall 2006
M:3/4
L:1/4
Q:3/4=60
R:Waltz
K:F
F3|f3|edc|BAG|Ff/f/f|d d/d/ d|c/A/F/ B/G/E/|Fz2:|!
|:c c/c/ c|cde|f f/f/ f|c’af|d d/d/ d|cAF|G/A/B/c/d/e/|fz2:|!
|:FAc|f2e|d3|c3|EGB|d2c|B3|A3|Acf|a2g|fag|fed|cfA|cBE|G3|Fz2:|!
|:GBd|g2f|e3|c3|Ace|a2g|f3|d3|ceg|b2e|fag|fed|cfA|cBE|G3|Fz2:|

